X:1
T:Title
%%score { 1 | 2 }
L:1/8
Q:1/4=84
M:6/8
K:A
V:1 treble nm="Grand Piano"
V:2 bass 
V:1
 [CE][CE][CE] [CE]C[CE] | [CE][EA]B c2 c/c/ | BBB [EA]2 B | c6 | [CE][CE][CE] [CE]C[CE] | %5
w: J.~M.~Hagan * * * * *|||||
 [CE][EA]B c2 c/c/ | BBB c2 B | [CA]6 | cee ec[EA] | [FA][FA][FB] [^Ec]3 | cBA AAA | GGA .B3 | %12
w: |||||||
 [CE][CE][CE] [CE]C[CE] | [CE][EA]B c2 c/c/ | BBB c2 B | [CA]6 |] %16
w: ||||
V:2
 [A,,A,][A,,A,][A,,A,] [A,,A,][A,,A,][A,,A,] | [A,,A,][C,A,][E,G,E] [A,E]2 [A,E]/[A,E]/ | %2
 [E,G,D][E,G,D][E,G,D] [C,A,]2 [E,G,E] | [A,E]6 | [A,,A,][A,,A,][A,,A,] [A,,A,][A,,A,][A,,A,] | %5
 [A,,A,][C,A,][E,G,E] [A,E]2 [A,E]/[A,E]/ | [E,G,D][E,G,D][E,G,D] [E,A,E]2 [E,G,D] | [A,,A,]6 | %8
 [A,E][A,CA][A,CA] [A,CA][A,EA][K:bass]C, | [D,D][D,D][D,D] [C,G,]3 | %10
 [F,A,F][F,A,F][F,B,^D] [F,B,D][F,B,D][F,B,D] | [E,B,E][E,B,E][E,CE] .[E,DE]3 | %12
 [A,,A,][A,,A,][A,,A,] [A,,A,][A,,A,][A,,A,] | [A,,A,][C,A,][E,G,E] [A,E]2 [A,E]/[A,E]/ | %14
 [E,G,D][E,G,D][E,G,D] [E,A,E]2 [E,G,D] | [A,,A,]6 |] %16

